icons/svg/shields/h_blue_round_shield.svg

<?xml version="1.0" encoding="UTF-8" standalone="no"?>
<!-- Generator: Adobe Illustrator 16.0.4, SVG Export Plug-In . SVG Version: 6.00 Build 0)  -->

<svg
   xmlns:dc="http://purl.org/dc/elements/1.1/"
   xmlns:cc="http://creativecommons.org/ns#"
   xmlns:rdf="http://www.w3.org/1999/02/22-rdf-syntax-ns#"
   xmlns:svg="http://www.w3.org/2000/svg"
   xmlns="http://www.w3.org/2000/svg"
   xmlns:sodipodi="http://sodipodi.sourceforge.net/DTD/sodipodi-0.dtd"
   xmlns:inkscape="http://www.inkscape.org/namespaces/inkscape"
   version="1.1"
   id="Слой_1"
   x="0px"
   y="0px"
   width="20"
   height="20"
   viewBox="0 0 19.999999 20"
   enable-background="new 0 0 17.113 17.143"
   xml:space="preserve"
   inkscape:version="0.91 r13725"
   sodipodi:docname="h_blue_round_shield.svg"><metadata
     id="metadata13"><rdf:RDF><cc:Work
         rdf:about=""><dc:format>image/svg+xml</dc:format><dc:type
           rdf:resource="http://purl.org/dc/dcmitype/StillImage" /><dc:title /></cc:Work></rdf:RDF></metadata><defs
     id="defs11" /><sodipodi:namedview
     pagecolor="#ffffff"
     bordercolor="#666666"
     borderopacity="1"
     objecttolerance="10"
     gridtolerance="10"
     guidetolerance="10"
     inkscape:pageopacity="0"
     inkscape:pageshadow="2"
     inkscape:window-width="1920"
     inkscape:window-height="1006"
     id="namedview9"
     showgrid="true"
     inkscape:zoom="27.533105"
     inkscape:cx="10.806407"
     inkscape:cy="10.417353"
     inkscape:window-x="1920"
     inkscape:window-y="0"
     inkscape:window-maximized="1"
     inkscape:current-layer="Слой_1"
     inkscape:snap-object-midpoints="true"
     inkscape:snap-center="true"
     inkscape:snap-global="false"><inkscape:grid
       type="xygrid"
       id="grid4148" /></sodipodi:namedview><path
     d="m 9.9993655,0.46067674 c 5.2606235,0 9.5399565,4.24162296 9.5399565,9.53932326 0,5.263076 -4.279333,9.539323 -9.5399565,9.539323 -5.259355,0 -9.53868988,-4.276247 -9.53868988,-9.539323 0,-5.2977003 4.27933488,-9.53932326 9.53868988,-9.53932326 l 0,0 z"
     id="path5"
     inkscape:connector-curvature="0"
     style="color:#000000;clip-rule:nonzero;display:inline;overflow:visible;visibility:visible;opacity:0.94899998;isolation:auto;mix-blend-mode:normal;color-interpolation:sRGB;color-interpolation-filters:linearRGB;solid-color:#000000;solid-opacity:1;fill:#45abe9;fill-opacity:1;fill-rule:nonzero;stroke:none;stroke-width:0.03244878;stroke-linecap:butt;stroke-linejoin:miter;stroke-miterlimit:4;stroke-dasharray:none;stroke-dashoffset:0;stroke-opacity:1;marker:none;color-rendering:auto;image-rendering:auto;shape-rendering:auto;text-rendering:auto;enable-background:accumulate" /><path
     style="color:#000000;clip-rule:nonzero;display:inline;overflow:visible;visibility:visible;opacity:0.949;isolation:auto;mix-blend-mode:normal;color-interpolation:sRGB;color-interpolation-filters:linearRGB;solid-color:#000000;solid-opacity:1;fill:#1578b3;fill-opacity:1;fill-rule:nonzero;stroke:none;stroke-width:0.03244878;stroke-linecap:butt;stroke-linejoin:miter;stroke-miterlimit:4;stroke-dasharray:none;stroke-dashoffset:0;stroke-opacity:1;marker:none;color-rendering:auto;image-rendering:auto;shape-rendering:auto;text-rendering:auto;enable-background:accumulate"
     d="M 9.9999991,0 C 4.4673902,0 -9.0367432e-7,4.4666667 -9.0367432e-7,10 -9.0367432e-7,15.5 4.4673902,20 9.9999991,20 c 5.5337779,0 9.9999999,-4.5 9.9999999,-10 0,-5.5333333 -4.466222,-10 -9.9999999,-10 z m 0,0.637232 c 5.1657689,0 9.3669349,4.163082 9.3669349,9.3626865 0,5.1656205 -4.201165,9.3711835 -9.3669349,9.3711835 -5.1645204,0 -9.3669348,-4.205563 -9.3669348,-9.3711835 0,-5.1996045 4.2024144,-9.3626865 9.3669348,-9.3626865 z"
     id="path3-3"
     inkscape:connector-curvature="0"
     sodipodi:nodetypes="ssssssssss" /></svg>

<svg width="20" height="20" viewBox="0 0 20 20" fill="none" xmlns="http://www.w3.org/2000/svg">
<g clip-path="url(#clip0)">
<path opacity="0.949" d="M9.99935 0.460663C15.26 0.460663 19.5393 4.70229 19.5393 9.99999C19.5393 15.2631 15.26 19.5393 9.99935 19.5393C4.74 19.5393 0.460663 15.2631 0.460663 9.99999C0.460663 4.70229 4.74 0.460663 9.99935 0.460663V0.460663Z" fill="#45ABE9"/>
<path opacity="0.949" d="M10 0C4.46739 0 0 4.46667 0 10C0 15.5 4.46739 20 10 20C15.5338 20 20 15.5 20 10C20 4.46667 15.5338 0 10 0V0ZM10 0.637232C15.1658 0.637232 19.3669 4.80031 19.3669 9.99992C19.3669 15.1655 15.1658 19.3711 10 19.3711C4.83548 19.3711 0.633065 15.1655 0.633065 9.99992C0.633065 4.80031 4.83548 0.637232 10 0.637232V0.637232Z" fill="#1578B3"/>
</g>
<defs>
<clipPath id="clip0">
<path d="M0 0H20V20H0V0Z" fill="white"/>
</clipPath>
</defs>
</svg>
